apps/web/public/images/home/built-for-teams-startups-icon.svg

<svg width="55" height="54" viewBox="0 0 55 54" fill="none" xmlns="http://www.w3.org/2000/svg">
<rect x="0.458144" y="0.458144" width="54.015" height="53.0839" rx="3.20701" fill="url(#paint0_radial_5841_36222)"/>
<rect x="0.458144" y="0.458144" width="54.015" height="53.0839" rx="3.20701" stroke="url(#paint1_linear_5841_36222)" stroke-width="0.916289"/>
<path fill-rule="evenodd" clip-rule="evenodd" d="M27.7553 32.9293L35.6768 25.0308C36.8176 23.8941 37.3879 23.3251 37.6874 22.603C37.9868 21.8809 37.9881 21.0748 37.9881 19.4667V18.6985C37.9881 16.2246 37.9881 14.9877 37.2172 14.2195C36.4464 13.4514 35.2067 13.4514 32.7261 13.4514H31.9539C30.3417 13.4514 29.5355 13.4514 28.8107 13.7508C28.0846 14.0502 27.5142 14.6192 26.3721 15.7559L18.452 23.6543C17.1188 24.982 16.2924 25.8071 15.9727 26.6024C15.8736 26.8441 15.8221 27.1026 15.8209 27.3638C15.8209 28.4503 16.6975 29.3255 18.452 31.0746L18.6877 31.3089L21.4488 28.5059C21.5424 28.4108 21.6539 28.3351 21.7769 28.2831C21.8998 28.231 22.0318 28.2038 22.1652 28.2027C22.2987 28.2017 22.4311 28.227 22.5548 28.2772C22.6785 28.3273 22.7911 28.4014 22.8862 28.495C22.9813 28.5887 23.057 28.7002 23.109 28.8231C23.161 28.9461 23.1883 29.078 23.1893 29.2115C23.1903 29.345 23.165 29.4774 23.1149 29.6011C23.0647 29.7248 22.9907 29.8374 22.897 29.9325L20.1265 32.7437L20.3121 32.9293C22.0666 34.677 22.9445 35.5522 24.0337 35.5522C24.2749 35.5522 24.5052 35.5102 24.7369 35.4248C25.5538 35.1241 26.3884 34.2922 27.7553 32.9293ZM31.477 23.6543C30.9828 24.1467 30.3137 24.4231 29.6162 24.4231C28.9186 24.4231 28.2495 24.1467 27.7553 23.6543C27.5108 23.4113 27.3167 23.1224 27.1843 22.8041C27.0519 22.4857 26.9837 22.1444 26.9837 21.7996C26.9837 21.4549 27.0519 21.1135 27.1843 20.7952C27.3167 20.4769 27.5108 20.1879 27.7553 19.9449C28.2495 19.4526 28.9186 19.1761 29.6162 19.1761C30.3137 19.1761 30.9828 19.4526 31.477 19.9449C31.7215 20.1879 31.9156 20.4769 32.048 20.7952C32.1805 21.1135 32.2486 21.4549 32.2486 21.7996C32.2486 22.1444 32.1805 22.4857 32.048 22.8041C31.9156 23.1224 31.7215 23.4113 31.477 23.6543Z" fill="white"/>
<path d="M20.4246 18.8216L16.9794 22.2587C16.3467 22.8901 15.7655 23.4685 15.3062 23.9929C14.9954 24.3385 14.7148 24.7102 14.4676 25.1038L14.4351 25.0699L14.3063 24.9426C13.7061 24.3627 13.002 23.9013 12.2308 23.5824L12.0642 23.5146L11.5507 23.3114C11.3908 23.2483 11.2491 23.1465 11.1384 23.015C11.0277 22.8835 10.9515 22.7265 10.9167 22.5581C10.8819 22.3898 10.8895 22.2155 10.939 22.0509C10.9884 21.8862 11.078 21.7365 11.1998 21.6152C12.7172 20.1005 14.5394 18.2837 15.42 17.9193C16.1848 17.5998 17.0217 17.4926 17.8424 17.6091C18.5821 17.7188 19.2812 18.0995 20.4246 18.8216ZM26.3085 36.9081C26.5862 37.1899 26.7691 37.3891 26.9371 37.6018C27.1566 37.8827 27.3526 38.1798 27.5251 38.4932C27.7175 38.8455 27.8679 39.2208 28.1673 39.9727C28.226 40.1149 28.319 40.2404 28.4379 40.338C28.5568 40.4357 28.6979 40.5025 28.8488 40.5325C28.9997 40.5625 29.1557 40.5548 29.3029 40.5101C29.4502 40.4654 29.5841 40.385 29.6928 40.2761L29.8066 40.1637C31.3239 38.6504 33.1461 36.8336 33.5119 35.9571C33.8332 35.1956 33.9405 34.3608 33.8222 33.5428C33.7124 32.8044 33.3317 32.1067 32.6069 30.966L29.1495 34.4126C28.5019 35.0588 27.9085 35.6509 27.3706 36.1142C27.0496 36.3933 26.6973 36.6697 26.3085 36.9081Z" fill="white"/>
<defs>
<radialGradient id="paint0_radial_5841_36222" cx="0" cy="0" r="1" gradientUnits="userSpaceOnUse" gradientTransform="translate(27.4656 2.35781) scale(36.2498 36.8748)">
<stop stop-color="#74B5FF"/>
<stop offset="1" stop-color="#0071F2"/>
</radialGradient>
<linearGradient id="paint1_linear_5841_36222" x1="27.4656" y1="0" x2="27.4656" y2="54.0002" gradientUnits="userSpaceOnUse">
<stop stop-color="#0071F2"/>
<stop offset="1" stop-color="#7CB9FF"/>
</linearGradient>
</defs>
</svg>

<svg xmlns="http://www.w3.org/2000/svg" fill="none" viewBox="0 0 55 54"><rect width="54.015" height="53.084" x=".458" y=".458" fill="url(#paint0_radial_5841_36222)" rx="3.207"/><rect width="54.015" height="53.084" x=".458" y=".458" stroke="url(#paint1_linear_5841_36222)" stroke-width=".916" rx="3.207"/><path fill="#fff" fill-rule="evenodd" d="m27.755 32.93 7.922-7.9c1.14-1.136 1.71-1.705 2.01-2.427s.301-1.528.301-3.136v-.768c0-2.474 0-3.711-.77-4.48-.772-.768-2.011-.768-4.492-.768h-.772c-1.612 0-2.419 0-3.143.3-.726.3-1.297.868-2.439 2.005l-7.92 7.898c-1.333 1.328-2.16 2.153-2.48 2.948-.098.242-.15.5-.151.762 0 1.086.877 1.962 2.631 3.71l.236.235 2.76-2.803a1.015 1.015 0 0 1 1.661.317 1.02 1.02 0 0 1-.212 1.11l-2.77 2.81.185.186c1.755 1.748 2.633 2.623 3.722 2.623.24 0 .471-.042.703-.127.817-.3 1.651-1.133 3.018-2.496m3.722-9.276a2.636 2.636 0 0 1-4.293-.85 2.62 2.62 0 0 1 .571-2.86 2.637 2.637 0 0 1 4.293.851 2.61 2.61 0 0 1-.571 2.86" clip-rule="evenodd"/><path fill="#fff" d="m20.425 18.822-3.446 3.437c-.632.631-1.213 1.21-1.673 1.734a8 8 0 0 0-.838 1.11l-.033-.033-.129-.127a6.6 6.6 0 0 0-2.075-1.36l-.167-.068-.513-.204a1.036 1.036 0 0 1-.351-1.696c1.517-1.514 3.34-3.331 4.22-3.696a4.6 4.6 0 0 1 2.422-.31c.74.11 1.44.49 2.583 1.213m5.883 18.086c.278.282.461.481.63.694q.329.42.587.891c.193.352.343.728.642 1.48a.934.934 0 0 0 1.526.303l.114-.112c1.517-1.514 3.34-3.33 3.705-4.207a4.54 4.54 0 0 0 .31-2.414c-.11-.739-.49-1.436-1.215-2.577l-3.457 3.447c-.648.646-1.241 1.238-1.78 1.701a8 8 0 0 1-1.062.794"/><defs><radialGradient id="paint0_radial_5841_36222" cx="0" cy="0" r="1" gradientTransform="matrix(36.2498 0 0 36.8748 27.466 2.358)" gradientUnits="userSpaceOnUse"><stop stop-color="#74b5ff"/><stop offset="1" stop-color="#0071f2"/></radialGradient><linearGradient id="paint1_linear_5841_36222" x1="27.466" x2="27.466" y1="0" y2="54" gradientUnits="userSpaceOnUse"><stop stop-color="#0071f2"/><stop offset="1" stop-color="#7cb9ff"/></linearGradient></defs></svg>
